assets/images/fangwu.svg

<svg xmlns="http://www.w3.org/2000/svg" preserveAspectRatio="xMidYMid" width="120" height="120" viewBox="0 0 120 120"><defs><style>.cls-1,.cls-2{fill:#fff}.cls-1{stroke:#fff;stroke-linejoin:round;stroke-width:3px;opacity:.9;fill-opacity:.2}.cls-2{fill-rule:evenodd}</style></defs><circle cx="59.906" cy="60.078" r="55.375" class="cls-1"/><path d="M85.731 58.922l-3.742.015v23.34c0 .953-.773 1.725-1.725 1.725H69.99V70.081c0-.953-.304-1.068-1.257-1.068H55.028c-.952 0-1.034.121-1.034 1.075v13.914H43.749a1.725 1.725 0 0 1-1.725-1.725V58.948l-3.288.001c-.916-.265-1.036-.958-.771-1.873l24.163-20.799 23.755 20.442c1.314 1.353-.152 2.203-.152 2.203z" class="cls-2"/></svg>

<svg xmlns="http://www.w3.org/2000/svg" xmlns:xlink="http://www.w3.org/1999/xlink" preserveAspectRatio="xMidYMid" width="120" height="120" viewBox="0 0 120 120">
  <defs>
    <style>
      .cls-1, .cls-2 {
        fill: #fff;
      }

      .cls-1 {
        stroke: #fff;
        stroke-linejoin: round;
        stroke-width: 3px;
        opacity: 0.9;
        fill-opacity: 0.2;
      }

      .cls-2 {
        fill-rule: evenodd;
      }
    </style>
  </defs>
  <circle cx="59.906" cy="60.078" r="55.375" class="cls-1"/>
  <path d="M85.731,58.922 L81.989,58.937 L81.989,82.277 C81.989,83.230 81.216,84.002 80.264,84.002 L69.990,84.002 L69.990,70.081 C69.990,69.128 69.686,69.013 68.733,69.013 L55.028,69.013 C54.076,69.013 53.994,69.134 53.994,70.088 L53.994,84.002 L43.749,84.002 C42.796,84.002 42.024,83.230 42.024,82.277 L42.024,58.948 L38.736,58.949 C37.820,58.684 37.700,57.991 37.965,57.076 L62.128,36.277 L85.883,56.719 C87.197,58.072 85.731,58.922 85.731,58.922 Z" class="cls-2"/>
</svg>
